resources/svg/solid/chess-board.svg

<svg fill="currentColor" xmlns="http://www.w3.org/2000/svg" viewBox="0 0 448 512"><!--! Font Awesome Free 6.1.2 by @fontawesome - https://fontawesome.com License - https://fontawesome.com/license/free (Icons: CC BY 4.0, Fonts: SIL OFL 1.1, Code: MIT License) Copyright 2022 Fonticons, Inc. --><path d="M192 224H128v64h64V224zM384 32H64C28.65 32 0 60.65 0 96v320c0 35.35 28.65 64 64 64h320c35.35 0 64-28.65 64-64V96C448 60.65 419.3 32 384 32zM384 160h-64v64h64v64h-64v64h64v64h-64v-64h-64v64H192v-64H128v64H64v-64h64V288H64V224h64V160H64V96h64v64h64V96h64v64h64V96h64V160zM192 288v64h64V288H192zM256 224V160H192v64H256zM256 288h64V224h-64V288z"/></svg>

<svg fill="currentColor" xmlns="http://www.w3.org/2000/svg" viewBox="0 0 448 512"><!--! Font Awesome Free 6.2.0 by @fontawesome - https://fontawesome.com License - https://fontawesome.com/license/free (Icons: CC BY 4.0, Fonts: SIL OFL 1.1, Code: MIT License) Copyright 2022 Fonticons, Inc. --><path d="M64 32C28.7 32 0 60.7 0 96V416c0 35.3 28.7 64 64 64H384c35.3 0 64-28.7 64-64V96c0-35.3-28.7-64-64-64H64zm64 64v64h64V96h64v64h64V96h64v64H320v64h64v64H320v64h64v64H320V352H256v64H192V352H128v64H64V352h64V288H64V224h64V160H64V96h64zm64 128h64V160H192v64zm0 64V224H128v64h64zm64 0H192v64h64V288zm0 0h64V224H256v64z"/></svg>
